img/audio-x-playlist-symbolic.svg

<?xml version="1.0" encoding="UTF-8" standalone="no"?>
<svg
   xmlns:dc="http://purl.org/dc/elements/1.1/"
   xmlns:cc="http://creativecommons.org/ns#"
   xmlns:rdf="http://www.w3.org/1999/02/22-rdf-syntax-ns#"
   xmlns:svg="http://www.w3.org/2000/svg"
   xmlns="http://www.w3.org/2000/svg"
   xmlns:sodipodi="http://sodipodi.sourceforge.net/DTD/sodipodi-0.dtd"
   xmlns:inkscape="http://www.inkscape.org/namespaces/inkscape"
   width="16"
   viewBox="0 0 16 16"
   height="16"
   id="svg2"
   version="1.1"
   inkscape:version="0.48.5 r10040"
   sodipodi:docname="xn-playlist-symbolic.svg">
  <metadata
     id="metadata22">
    <rdf:RDF>
      <cc:Work
         rdf:about="">
        <dc:format>image/svg+xml</dc:format>
        <dc:type
           rdf:resource="http://purl.org/dc/dcmitype/StillImage" />
        <dc:title></dc:title>
      </cc:Work>
    </rdf:RDF>
  </metadata>
  <defs
     id="defs20" />
  <sodipodi:namedview
     pagecolor="#ffffff"
     bordercolor="#666666"
     borderopacity="1"
     objecttolerance="10"
     gridtolerance="10"
     guidetolerance="10"
     inkscape:pageopacity="0"
     inkscape:pageshadow="2"
     inkscape:window-width="1920"
     inkscape:window-height="1052"
     id="namedview18"
     showgrid="true"
     inkscape:zoom="44.704928"
     inkscape:cx="8.1362836"
     inkscape:cy="8.0006788"
     inkscape:window-x="0"
     inkscape:window-y="28"
     inkscape:window-maximized="1"
     inkscape:current-layer="svg2">
    <inkscape:grid
       type="xygrid"
       id="grid2999" />
  </sodipodi:namedview>
  <rect
     style="fill:#bebebe"
     id="rect12"
     height="1"
     y="3"
     x="0"
     width="9" />
  <rect
     style="fill:#bebebe"
     id="rect14"
     height="1"
     y="1"
     x="0"
     width="9" />
  <path
     style="fill:#bebebe"
     inkscape:connector-curvature="0"
     id="path16"
     d="M 8,15 C 7,14.664467 6.7345329,14.435349 6.444495,13.739072 6.2580035,13.074268 6.502019,12.360437 6.9205259,11.835477 7.6971053,10.863513 8.7771103,10.365266 10,10.595066 10.0099,7.3415983 9.994039,4.2534346 10,1 c 0.294896,0.434739 0.870876,0.6942891 1.268919,1.0414191 0.846005,0.766992 1.898636,1.2542964 2.768444,1.990212 0.749801,0.6384217 1.400752,1.4301756 1.733005,2.3677572 0.243653,0.6704568 0.293243,1.406703 0.151415,2.1052608 C 15.734983,9.4008726 15.185195,9.9056988 14.59276,10.59738 14.794426,9.7626152 15.024524,9.1999009 14.766656,8.3621605 14.595107,7.7812963 14.218521,7.2771313 13.74973,6.900611 13.213828,6.4678556 12.630454,6.267786 12,6 c -0.0083,2.1495612 0.0026,4.200693 0,6.350585 0.03306,0.742164 -0.393513,1.452326 -0.935697,1.939961 C 10.233869,15.041669 9.092302,15.280679 8,15"
     sodipodi:nodetypes="cccccccccccccccc" />
  <rect
     width="9"
     x="0"
     y="5"
     height="1"
     id="rect3007"
     style="fill:#bebebe" />
  <rect
     width="9"
     x="0"
     y="9"
     height="1"
     id="rect3009"
     style="fill:#bebebe" />
  <rect
     width="9"
     x="0"
     y="7"
     height="1"
     id="rect3011"
     style="fill:#bebebe" />
  <rect
     style="fill:#bebebe"
     id="rect3013"
     height="1"
     y="11"
     x="0"
     width="5" />
  <rect
     width="5"
     x="0"
     y="13"
     height="1"
     id="rect3015"
     style="fill:#bebebe" />
</svg>

<?xml version="1.0" encoding="UTF-8"?>
<svg version="1.1" viewBox="0 0 16 16" xmlns="http://www.w3.org/2000/svg" xmlns:cc="http://creativecommons.org/ns#" xmlns:dc="http://purl.org/dc/elements/1.1/" xmlns:rdf="http://www.w3.org/1999/02/22-rdf-syntax-ns#">
  <metadata>
    <rdf:RDF>
      <cc:Work rdf:about="">
        <dc:format>image/svg+xml</dc:format>
        <dc:type rdf:resource="http://purl.org/dc/dcmitype/StillImage"/>
        <dc:title/>
      </cc:Work>
    </rdf:RDF>
  </metadata>
  <rect y="3" width="9" height="1" fill="#bebebe"/>
  <rect y="1" width="9" height="1" fill="#bebebe"/>
  <path d="m8 15c-1-0.33553-1.2655-0.56465-1.5555-1.2609-0.18649-0.6648 0.057524-1.3786 0.47603-1.9036 0.77658-0.97196 1.8566-1.4702 3.0795-1.2404 0.0099-3.2535-0.005961-6.3416 0-9.5951 0.2949 0.43474 0.87088 0.69429 1.2689 1.0414 0.846 0.76699 1.8986 1.2543 2.7684 1.9902 0.7498 0.63842 1.4008 1.4302 1.733 2.3678 0.24365 0.67046 0.29324 1.4067 0.15142 2.1053-0.1868 0.89622-0.73659 1.401-1.329 2.0927 0.20167-0.83476 0.43176-1.3975 0.1739-2.2352-0.17155-0.58086-0.54814-1.085-1.0169-1.4615-0.5359-0.43276-1.1193-0.63282-1.7497-0.90061-0.0083 2.1496 0.0026 4.2007 0 6.3506 0.03306 0.74216-0.39351 1.4523-0.9357 1.94-0.83043 0.75112-1.972 0.99013-3.0643 0.70945" fill="#bebebe"/>
  <rect y="5" width="9" height="1" fill="#bebebe"/>
  <rect y="9" width="9" height="1" fill="#bebebe"/>
  <rect y="7" width="9" height="1" fill="#bebebe"/>
  <rect y="11" width="5" height="1" fill="#bebebe"/>
  <rect y="13" width="5" height="1" fill="#bebebe"/>
</svg>
